X:1
T:Victory for Me
T:Anna P. Hughes, 1909
T:Victory for Me
T:Public Domain
T:Public Domain
C:Anna P. Hughes, 1909
Z:Public Domain
%%score ( 1 2 ) ( 3 4 )
L:1/8
M:6/8
K:Ab
V:1 treble 
V:2 treble 
V:3 bass 
V:4 bass 
V:1
 [CE] | [CE][DF][DG] [CA][CE][EA] | [EB][EA][EB] [Ec]2 [_Gc] | [Fd][DF][Fd] [Ec][CA][Ec] | %4
w: 1.~I’m|walk- ing with Je- sus each|day, yes I know; He|helps me to con- quer in|
w: 2.~Tho’|fierce be the bat- tle, and|long be the fray; The|Sav- ior has prom- ised to|
w: 3.~And|when to the end of life’s|con- flict I’m near, Death|can- not af- fright me, no|
 [=DB][DF][Dc] [EB]2 [_DE] | [CE][DF][DG] [CA][DB][Ec] | [Fd][DF][Fd] [Ec]3 | %7
w: this world be- low; A-|bid- ing, con- fid- ing, I’ll|trust to the end;|
w: lead all the way; So|fol- low- ing close- ly, I’ll|shout as I go!|
w: grave do I fear, For|Je- sus hath con- quered; once|dead, now He lives!|
 [Fe]>[Fd][Ec] [DB][DF][FA] | [EA][Ec]>[DB] [CA]2 ||"^Refrain" E | [Ac]>[EB][EA] [EB]2 E | %11
w: Je- sus is vic- tor, on|Him I’ll de- pend.|||
w: Vic- to- ry! vic- to- ry,|o’er ev- ery foe.|There’s|t’ry for me! yes, vic-|
w: Je- sus my Sav- ior the|vic- to- ry gives.|||
 [Bd]>[Ac][GB] [Ac]2 E | [DF]>[DG][DA] [=DA]>[DB][Dc] | [=DB]2 [DF] [_DB]2 E | %14
w: |||
w: for me, Thro’ Je- sus|cap- tain there’s vic- to- ry;|No ill can be-|
w: |||
 [Ee]>[A=d][Ae] [Ac]2 [_GA] | [FB]>[FA][DF] [CE]2 [Fd] | [Ec]>[EB][EA] [DB]>[DF][DG] | %17
w: |||
w: with Christ by my side,|For He’ll gain the vic-|t’ry for me. * * *|
w: |||
 [CA]3- [CA]2 |] %18
w: |
w: |
w: |
V:2
 x | x6 | x6 | x6 | x6 | x6 | x6 | x6 | x5 || E | x5 E | x5 E | x6 | x5 E | x6 | x6 | x6 | x5 |] %18
w: ||||||||||||||||||
w: |||||||||vic-|t’ry|my||tide,|||||
V:3
 [A,,A,] | [A,,A,][A,,A,][A,,E,] [A,,E,][A,,A,][C,A,] | [E,G,][E,F,][E,G,] [A,,A,]2 [A,,A,] | %3
 [D,A,][D,A,][D,A,] [A,,A,][A,,A,][A,,A,] | [B,,A,][B,,A,][B,,A,] [E,G,]2 [E,G,] | %5
 [A,,A,][D,A,][B,,E,] [A,,E,][A,,E,][A,,A,] | [D,A,][D,A,][D,A,] A,3 | %7
 [F,=A,]>[F,A,][F,A,] [B,,B,][B,,B,][=D,=B,] | [E,C][E,A,]>[E,G,] [A,,E,]2 || A, | %10
 [A,E]>[A,D][A,C] [E,D]2 [E,D] | [E,E]>[E,E][E,E] [A,E]2 [A,C] | %12
 [D,A,]>[E,A,][F,A,] [B,,B,]>B,,[B,,A,] | [B,,A,]2 [B,,A,] [E,G,]2 [E,D] | %14
 [A,C]>[A,=B,][A,C] [A,E]2 [A,C] | [D,D]>[D,D][D,A,] [A,,A,]2 [D,A,] | %16
 [E,A,]>[E,D][E,C] [E,G,]>[E,A,][E,B,] | [A,,A,]3- [A,,A,]2 |] %18
V:4
 x | x6 | x6 | x6 | x6 | x6 | x3 A,3 | x6 | x5 || A, | x6 | x6 | x6 | x6 | x6 | x6 | x6 | x5 |] %18

